assets/v1/icons/dart.svg

<svg xmlns="http://www.w3.org/2000/svg" width="16" height="16" viewBox="0 0 16 16">
  <g fill="none" fill-rule="evenodd">
    <path fill="#9AA7B0" fill-opacity=".8" d="M7.4814,13.5977 C7.0294,13.1357 6.8614,12.2657 7.2034,11.5347 L8.7034,8.5467 L11.5244,7.2077 C11.8254,7.0667 12.1054,6.9997 12.3914,6.9997 C12.5604,6.9997 12.7714,7.0357 13.0004,7.1237 L13.0004,0.9997 L8.0004,0.9997 L8.0004,5.9997 L3.0004,5.9997 L3.0004,14.9997 L8.8404,14.9997 L7.4814,13.5977 Z"/>
    <path fill="#70B4F4" d="M9.9004853,9.90075674 L9.35647634,9.35617634 L9.35990497,13.2979555 C9.36276216,13.7242482 9.33304739,14.0779684 9.54962238,14.2939719 L9.84105575,14.5865482 L14.5622763,14.5625478 L9.9004853,9.90075674" opacity=".9"/>
    <polygon fill="#7CC1FD" points="9.841 14.587 11.255 16 14.589 16 14.563 14.563" opacity=".9"/>
    <path fill="#5070A8" d="M9.35973354 13.2981269L9.35630491 9.35634777 8.10942724 11.9575334C7.96371056 12.2678243 7.90199526 12.6472591 8.32771655 13.0724089L9.54945095 14.2941433C9.33287595 14.0775683 9.36259073 13.7244197 9.35973354 13.2981269M14.586391 9.84161291L14.2943862 9.54903666C14.0778112 9.33246167 13.7246625 9.36217644 13.2983698 9.35931925L9.35659063 9.35589062 9.90117102 9.90104245 14.5623906 14.5628335 16.0007 14.5891196 16.0007 11.2553505 14.586391 9.84161291z" opacity=".9"/>
    <path fill="#7CC1FD" d="M13.2978555,9.35943354 L9.35664777,9.35600491 L11.957262,8.10912724 C12.2681243,7.96341056 12.6475591,7.9022667 13.0727089,8.32741655 L14.2944433,9.54915095 C14.0778683,9.33257595 13.7241482,9.36229073 13.2978555,9.35943354" opacity=".9"/>
    <polygon fill="#9AA7B0" fill-opacity=".8" points="7 1 3 5 7 5"/>
  </g>
</svg>

<svg xmlns="http://www.w3.org/2000/svg" width="16" height="16" viewBox="0 0 16 16"><g fill="none" fill-rule="evenodd"><path fill="#9AA7B0" fill-opacity=".8" d="M7.481 13.598c-.452-.462-.62-1.332-.278-2.063l1.5-2.988 2.821-1.34c.301-.14.581-.207.867-.207.17 0 .38.036.61.124V1H8v5H3v9h5.84z"/><path fill="#70B4F4" d="m9.9 9.9-.544-.544.004 3.942c.003.426-.027.78.19.996l.291.293 4.721-.024z" opacity=".9"/><path fill="#7CC1FD" d="M9.841 14.587 11.255 16h3.334l-.026-1.437z" opacity=".9"/><path fill="#5070A8" d="m9.36 13.298-.004-3.942-1.247 2.602c-.145.31-.207.69.219 1.114l1.221 1.222c-.216-.216-.186-.57-.19-.996m5.227-3.456-.292-.293c-.216-.217-.57-.187-.996-.19l-3.941-.003.544.545 4.661 4.662 1.439.026v-3.334z" opacity=".9"/><path fill="#7CC1FD" d="m13.298 9.36-3.941-.004 2.6-1.247c.311-.146.69-.207 1.116.218l1.221 1.222c-.216-.216-.57-.187-.996-.19" opacity=".9"/><path fill="#9AA7B0" fill-opacity=".8" d="M7 1 3 5h4z"/></g></svg>
